X:1
T:Title
%%score ( 1 2 ) { 3 | 4 }
L:1/8
Q:1/4=94
M:4/4
K:Ab
V:1 treble nm="Grand Piano, Soprano"
V:2 treble 
V:3 bass nm="Choir Pad, In Heavenly Pastures"
V:4 bass 
V:1
 [Ec]>[Fd] [Ec]>[DB] [DE]>[Dc] [DB]2 | [DB]>[Ec] [DB]>[CA] C>[DF] [CE]2 | %2
w: By~George~Frederick~Root * * * * * *||
 [CA]>[CB] [DA]>[DG] [DG]>[DA] [DB]>[D=A] | z2 =c6 | [Ec]>[Fd] [Ec]>[DB] [DE]>[Dc] [DB]2 | %5
w: |||
 [DB]>[Ec] [DB]>[CA] C>[DF] [CE]2 | [CA]>[CB] [DA]>[DG] [DG]>[DA] [DB]>[D=A] | [Ec]>[DB] [CA]6 | %8
w: |||
 z2 [Ge]2 [Ge]2 [Ge]>[Gd] | [EB]>[EG] [EA]4 [Ec]2- | [Ec]2 [=DB]2 [DB]2 [DB]>[DA] | z2 E6 | %12
w: ||||
 [Ec]>[Fd] [Ec]>[DB] [DE]>[Dc] [DB]2 | [DB]>[Ec] [DB]>[CA] C>[DF] [CE]2 | %14
w: ||
 [CA]>[CB] [DA]>[DG] [DG]>[DA] [DB]>[C=A] | [Ec]>[DB] A2- [DA-]>[DA-] [CA]2- | [CA]4 z4 |] %17
w: |||
V:2
 x8 | x8 | x8 | [DB]>[D_c] C4 E2 | x8 | x8 | x8 | x8 | x8 | x8 | x8 | [B,F]>[B,=D] B,2 C>C _D2 | %12
 x8 | x8 | x8 | z2 C2 z4 | x8 |] %17
V:3
 A,>A, G,>G, G,>G, G,2 | G,>G, A,>A, A,>A, A,2 | A,>A, B,>B, B,>A, G,>G, | G,>G, A,6 | %4
 A,>A, G,>G, G,>G, G,2 | G,>G, A,>A, A,>A, A,2 | A,>A, B,>B, B,>A, G,>G, | G,>G, A,4 z2 | %8
 z2 B,2 B,2 B,>B, | D>D C4 A,2- | A,2 F,2 F,2 F,>F, | A,>A, G,2 A,>A, B,2 | A,>A, G,>G, G,>G, G,2 | %13
 G,>G, A,>A, A,>A, A,2 | A,>A, B,>B, B,>A, G,>G, | G,>G, A,2 F,>F, E,2- | E,4 z4 |] %17
V:4
 z2 E,>E, E,>E, E,2 | E,>E, A,,>A,, A,,>A,, A,,2 | A,,>A,, E,>E, E,>E, E,>E, | E,>E, A,,6 | %4
 z2 E,>E, E,>E, E,2 | E,>E, A,,>A,, A,,>A,, A,,2 | A,,>A,, E,>E, E,>E, E,>E, | %7
 E,>E, A,,>A,, C,>E, A,2 | z2 E,2 E,2 E,>E, | E,>E, A,,4 A,,2- | A,,2 B,,2 B,,2 B,,>B,, | %11
 B,,>B,, E,6 | z2 E,>E, E,>E, E,2 | E,>E, A,,>A,, A,,>A,, A,,2 | A,,>A,, E,>E, E,>E, E,>E, | %15
 E,>E, A,,6- | A,,4 z4 |] %17

